X:151
T:Templehouse
Z: id:dc-jig-158
M:6/8
L:1/8
K:E Dorian
D|EDE G2A|BAB G2E|DED FEF|AdB AFD|!
EDE G2A|BAB gfe|dBA GBA|GEE E2:|!
f|gfg e2f|gfg efg|fef d2e|fef def|!
[1 gfg e2f|gfg edB|dBA GBA|GEE E2:|!
[2 gfg aga|bge edB|dBA GBA|GEE E2|]!

